images/logos-svg/stack-overflow.svg

<svg height="200" viewBox="0 0 1024 1024" width="200" xmlns="http://www.w3.org/2000/svg"><path d="m291.146 718.288h398.715v81.788h-398.715zm10.306-97.512 16.26-80.152 390.74 79.265-16.259 80.152zm50.081-187.484 35.488-73.69 359.243 173.003-35.487 73.69zm98.409-179.397 51.747-63.336 308.764 252.267-51.746 63.336zm139.225-142.489 65.88-48.467 236.278 321.165-65.88 48.467z"/><path d="m774.205 884.419h-564.847v-242.807h-76.676v319.483h718.199v-319.483h-76.676z"/></svg>

<svg t="1745850746515" class="icon" viewBox="0 0 1024 1024" version="1.1" xmlns="http://www.w3.org/2000/svg" p-id="51393" width="200" height="200"><path d="M291.146 718.288h398.715v81.788H291.146zM301.452 620.776l16.26-80.152 390.74 79.265-16.259 80.152zM351.533 433.292l35.488-73.69 359.243 173.003-35.487 73.69zM449.942 253.895l51.747-63.336 308.764 252.267-51.746 63.336zM589.167 111.406l65.88-48.467 236.278 321.165-65.88 48.467z" p-id="51394"></path><path d="M774.205 884.419H209.358V641.612h-76.676v319.483h718.199V641.612h-76.676z" p-id="51395"></path></svg>
